X: 1
T: String Quartet in B\b Major opus 76 no 4 mvt 3
C: Franz Joseph Haydn
%%abc-version 2.0
%%abcx-abcm2ps-target-version 5.9.1 (29 Sep 2008)
%%abc-creator hum2abc beta
%%abcx-conversion-date 2021/02/14 14:38:24
%%abc-copyright Copyright (c) 1994, 2000 Center for Computer Assisted Research in the Humanities
%%abc-edited-by Frances Bennion
%%abcx-initial-encoding-date 1997/04/15
%%gracespace 0 6 6
%%humdrum-veritas 1952784457
%%humdrum-veritas-data 1238891757
%%linebreak <none>
%%barnumbers 0
L: 1/4
M: 3/4
N: Derived from op76n4-03.krn
Q: "Menuetto: Allegro"
%%staves [1 2 3 4]
V: 1
V: 2
V: 3 clef=alto
V: 4 clef=bass
K: Bb
[V:1]z2 A/B/ [I:setbarnb1] |
[V:2]z2 z |
[V:3]z2 z |
[V:4]z2 z |
[V:1]A/B/ A/B/ d/B/ |
[V:2]z z B,/D/ |
[V:3]D F z |
[V:4]B,, D z |
[V:1]f f A/B/ |
[V:2]F F z |
[V:3]C E z |
[V:4]A,, C z |
[V:1]A/B/ A/B/ d/B/ |
[V:2]z z B,/D/ |
[V:3]B, D z |
[V:4]G,, B, z |
[V:1]f f A/B/ |
[V:2]F F z |
[V:3]A, C z |
[V:4]F,, A, z |
[V:1]A/B/ A/B/ g/B/ |
[V:2]g3 |
[V:3]B, B, B, |
[V:4]E, E, E, |
[V:1]b/B/ b/B/ b/B/ |
[V:2]f3 |
[V:3]B,3 |
[V:4]D,3 |
[V:1]b/g/ =e/c/ B/G/ |
[V:2][=eB] [Be] [Be] |
[V:3]G G, C |
[V:4][C,,C,] C, C, |
[V:1]F z2 |
[V:2][Af] z =B,/C/ |
[V:3]F, z ^G,/A,/ |
[V:4]F, z2 |
[V:1]z z g/^f/ |
[V:2]=B,/C/ E/C/ z |
[V:3]^G,/A,/ C/A,/ z |
[V:4]z z F,, |
[V:1]g/e/ c/e/ z |
[V:2]z z =E/F/ |
[V:3]z z ^C/D/ |
[V:4]F,, F,, z |
[V:1]z z b/a/ |
[V:2]=E/F/ B/F/ z |
[V:3]^C/D/ B,/D/ z |
[V:4]z z D,, |
[V:1]b/f/ d/f/ _a/g/ |
[V:2]z z F |
[V:3]z z =B, |
[V:4]D,, D,, z |
[V:1]g/e/ c/e/ g/f/ |
[V:2]E G E |
[V:3]C E A, |
[V:4]z3 |
[V:1]f/d/ B/d/ f/e/ |
[V:2]D F B, |
[V:3]B, D G, |
[V:4]z3 |
[V:1]e/c/ A/c/ e/d/ |
[V:2]C E A, |
[V:3]A, C ^F, |
[V:4]z3 |
[V:1]d/B/ G/B/ g |
[V:2]B, D ^C- |
[V:3]G, B, G, |
[V:4]z z D,,/E,,/ |
[V:1]g g g |
[V:2]C ^C ^c |
[V:3]B B G, |
[V:4]D,,/E,,/ D,,/E,,/ G,,/E,,/ |
[V:1]^f z ^F/G/ |
[V:2]d z2 |
[V:3]A, z2 |
[V:4]D,, D, z |
[V:1]^F/G/ F/G/ B/G/ |
[V:2]D D z |
[V:3]B, B, z |
[V:4]z3 |
[V:1]^G/A/ G/A/ c/A/ |
[V:2]E E z |
[V:3]C C z |
[V:4]z3 |
[V:1]c/=B/ c/B/ d/c/ |
[V:2]F F G |
[V:3]D D E |
[V:4]z3 |
[V:1]e/d/ f/e/ g/^f/ |
[V:2]G3- |
[V:3]=B, C D |
[V:4]z3 |
[V:1]g/f/ e/d/ c/B/ |
[V:2]G3 |
[V:3]E2 =E |
[V:4]z3 |
[V:1]A/F/ =E/F/ E/F/ |
[V:2]F3 |
[V:3]F A, A, |
[V:4]F,3- |
[V:1]z/G/ ^F/G/ F/G/ |
[V:2]=E3 |
[V:3]B,3 |
[V:4]F,3- |
[V:1]z/A/ ^G/A/ G/A/ |
[V:2]E3 |
[V:3]C3 |
[V:4]F,3 |
[V:1]z z A/B/ |
[V:2]z3 |
[V:3]z3 |
[V:4]A,,/B,,/ A,,/B,,/ z |
[V:1]A/B/ A/B/ A/B/ |
[V:2]z z =E/F/ |
[V:3]z z ^C/D/ |
[V:4]z3 |
[V:1]A/B/ A/B/ d/B/ |
[V:2]=E/F/ E/F/ B,/D/ |
[V:3]^C/D/ C/D/ F/D/ |
[V:4]B,, B,, B,, |
[V:1]f f A/B/ |
[V:2]F F z |
[V:3]C C z |
[V:4]A,, A,, z |
[V:1]A/B/ A/B/ d/B/ |
[V:2][B,F] [B,F] [B,F] |
[V:3]D D D |
[V:4]_A,, A,, A,, |
[V:1]g g =B/c/ |
[V:2][EB,] [B,E] z |
[V:3]E E z |
[V:4]G,, G,, z |
[V:1]=B/c/ B/c/ a/c/ |
[V:2]F A c/A/ |
[V:3][A,F] [FA,] [A,F] |
[V:4]E, E, E, |
[V:1]b/B/ b/B/ b/B/ |
[V:2]f3 |
[V:3][B,3F3] |
[V:4]D,3 |
[V:1]b/g/ e/c/ A/F/ |
[V:2]g g/e/ c/A/ |
[V:3]E G F/E/ |
[V:4]E, E, F, |
[V:1]B z2 |
[V:2]B z2 |
[V:3]D z2 |
[V:4]B,/F,/ D,/B,,/ A,,/B,,/ |
[V:1]z z [gB] |
[V:2]z z [gB] |
[V:3]z z [EB,] |
[V:4]A,,/B,,/ A,,/B,,/ E,/B,,/ |
[V:1][fB] [fB] z |
[V:2][fB] [fB] z |
[V:3][B,D] [DB,] ^C,/D,/ |
[V:4]D,/B,,/ D,/B,,/ A,,/B,,/ |
[V:1]z z [gB] |
[V:2]z z G/E/ |
[V:3]^C,/D,/ C,/D,/ E,/G,/ |
[V:4]A,,/B,,/ A,,/B,,/ E,/B,,/ |
[V:1][fB] [Bf] a/b/ |
[V:2]D B z |
[V:3]B, B, z |
[V:4]D,/B,,/ D,/B,,/ z |
[V:1]a/b/ a/b/ f/d/ |
[V:2]B z2 |
[V:3]F z2 |
[V:4]D, z2 |
[V:1]^f/g/ f/g/ e/c/ |
[V:2]B z2 |
[V:3]G z2 |
[V:4]E, z2 |
[V:1]=B/c/ B/c/ e/A/ |
[V:2]A z2 |
[V:3]E z2 |
[V:4]F, z2 |
[V:1]B d f |
[V:2]B z2 |
[V:3]D z2 |
[V:4]B, F, D, |
[V:1]b d' f' |
[V:2]z3 |
[V:3]z3 |
[V:4]B,, F,, D,, |
[V:1]=B/c/ B/c/ e/A/ |
[V:2]G z A |
[V:3]E z C |
[V:4]E,, z F,, |
[V:1]B d f |
[V:2]B z2 |
[V:3]D z2 |
[V:4]B, F, D, |
[V:1]b d' f' |
[V:2]_A3 |
[V:3]F3 |
[V:4]B,, F,, D,, |
[V:1]=B/c/ B/c/ e/A/ |
[V:2]G z [EA] |
[V:3]E z C |
[V:4]E,, z F,, |
[V:1]B z2 |
[V:2][BD] z2 |
[V:3]D z2 |
[V:4]B,, z2 |
[V:1]B z2 |
[V:2][DB] z2 |
[V:3]B,3- |
[V:4]B,,3- |
[V:1]z z f- |
[V:2]z z F- |
[V:3]B,3- |
[V:4]B,,3- |
[V:1]f g f |
[V:2]F G F |
[V:3]B,3- |
[V:4]B,,3- |
[V:1]=e f _e/d/ |
[V:2]=E F _E/D/ |
[V:3]B,3- |
[V:4]B,,3- |
[V:1]c e d/c/ |
[V:2]C E D/C/ |
[V:3]B,3- |
[V:4]B,,3- |
[V:1]B3- |
[V:2]B,3- |
[V:3]B,3- |
[V:4]B,,3- |
[V:1]B2 _A |
[V:2]B,2 _A |
[V:3]B,2 _A, |
[V:4]B,,2 _A,, |
[V:1]_G F E |
[V:2]_G F E |
[V:3]_G, F, E, |
[V:4]_G,, F,, E,, |
[V:1]F3- |
[V:2]F3- |
[V:3]F,3- |
[V:4]F,,3- |
[V:1]F2 f- |
[V:2]F2 F- |
[V:3]F,3 |
[V:4]F,,3 |
[V:1]f g f |
[V:2]F G F |
[V:3]B,3- |
[V:4]B,,3- |
[V:1]=e f _e/d/ |
[V:2]=E F _E/D/ |
[V:3]B,3- |
[V:4]B,,3- |
[V:1]c e d/c/ |
[V:2]C E D/C/ |
[V:3]B,3- |
[V:4]B,,3- |
[V:1]B3- |
[V:2]B,3- |
[V:3]B,3- |
[V:4]B,,3- |
[V:1]B2 _A |
[V:2]B,2 _A |
[V:3]B,2 _A, |
[V:4]B,,2 _A,, |
[V:1]_G F E |
[V:2]_G F E |
[V:3]_G, F, E, |
[V:4]_G,, F,, E,, |
[V:1]F3- |
[V:2]F3- |
[V:3]F,3- |
[V:4]F,,3- |
[V:1]F2 c- |
[V:2]F2 C- |
[V:3]F,2 z |
[V:4]F,,2 z |
[V:1]c d c |
[V:2]C D C |
[V:3]A,3- |
[V:4]F,3- |
[V:1]f3- |
[V:2]F3- |
[V:3]A, B, A, |
[V:4]F, G, F, |
[V:1]f g f |
[V:2]F G F |
[V:3]D3- |
[V:4]B,3- |
[V:1]b3- |
[V:2]B3- |
[V:3]D E D |
[V:4]B, C B, |
[V:1]b c' b |
[V:2]B c B |
[V:3]G3 |
[V:4]E3- |
[V:1]a b a/g/ |
[V:2]A B z |
[V:3]_G F z |
[V:4]E D z |
[V:1]^f g =f/e/ |
[V:2]e d z |
[V:3]c B z |
[V:4]z3 |
[V:1]d e d/c/ |
[V:2]_A G z |
[V:3]F E z |
[V:4]z3 |
[V:1]=B/c/ e/d/ c/_B/ |
[V:2]F/G/ E/F/ G/G/ |
[V:3]D/E/ C/D/ E/=E/ |
[V:4]z3 |
[V:1]A/G/ F/E/ D/C/ |
[V:2]F z2 |
[V:3]F z2 |
[V:4]z3 |
[V:1]B,3- |
[V:2]B,3- |
[V:3]B,3- |
[V:4]B,,3- |
[V:1]B,2 f- |
[V:2]B,2 F- |
[V:3]B,2 D,- |
[V:4]B,,3 |
[V:1]f g f |
[V:2]F G F |
[V:3]D, E, D, |
[V:4]B,,3- |
[V:1]=e f _e/d/ |
[V:2]=E F _E/D/ |
[V:3]^C, D, =C,/D,/ |
[V:4]B,,3- |
[V:1]c e d/c/ |
[V:2]C E D/C/ |
[V:3]E,/D,/ E,/F,/ G,/A,/ |
[V:4]B,,3- |
[V:1]B3- |
[V:2]B,3- |
[V:3]B,3- |
[V:4]B,,3- |
[V:1]B2 _A |
[V:2]B,2 _A |
[V:3]B,2 _A, |
[V:4]B,,2 _A,, |
[V:1]_G F E |
[V:2]_G F E |
[V:3]_G, F, E, |
[V:4]_G,, F,, E,, |
[V:1]F3- |
[V:2]F3- |
[V:3]F,3- |
[V:4]F,,3- |
[V:1]F2 f- |
[V:2]F2 F- |
[V:3]F,2 D- |
[V:4]F,,2 z |
[V:1]f g f |
[V:2]F G F |
[V:3]D E D |
[V:4]B,,3- |
[V:1]=e f b- |
[V:2]=E F d- |
[V:3]^C D F- |
[V:4]B,,3 |
[V:1]b c' b |
[V:2]d e d |
[V:3]F _G F |
[V:4]B,3- |
[V:1]a b c'/b/ |
[V:2][cE] [DB] e/d/ |
[V:3]_G F z |
[V:4]B,2 z |
[V:1]a b c'/b/ |
[V:2][Ec] [BD] e/d/ |
[V:3]_G F z |
[V:4]B,2 z |
[V:1]a b c'/b/ |
[V:2][Ec] [DB] e/d/ |
[V:3]_G F z |
[V:4]B,2 z |
[V:1]a b c'/d'/ |
[V:2][Ec] [DB] c/B/ |
[V:3]_G F E/D/ |
[V:4]B,2 z |
[V:1]e' c' a |
[V:2][A3-E3] |
[V:3]C A, F, |
[V:4]F,,3- |
[V:1]f e (3c/A/F/ |
[V:2][A3E3-] |
[V:3][A,3-F,3] |
[V:4]F,,3- |
[V:1][E2C2] z |
[V:2][A2E2] D- |
[V:3][A,2F,2] F,- |
[V:4]F,,2 z |
[V:1]z3 |
[V:2]D E D |
[V:3]F, G, F, |
[V:4]B,,3- |
[V:1]z z f- |
[V:2]^C D z |
[V:3]=E, F, D- |
[V:4]B,,2 z |
[V:1]f g f |
[V:2]B3- |
[V:3]D E D |
[V:4]z3 |
[V:1]=e f z |
[V:2]B2 z |
[V:3]^C D z |
[V:4]z3 |
[V:1]b a z |
[V:2]E z2 |
[V:3]C z2 |
[V:4]F, z2 |
[V:1]c' b z |
[V:2]D z2 |
[V:3]B, z2 |
[V:4]B, z2 |
[V:1]G F z |
[V:2][EC] z2 |
[V:3]A, z2 |
[V:4]F,, z2 |
[V:1]E D z |]
[V:2]A, B, z |]
[V:3]F, z2 |]
[V:4]B,, z2 |]

